storage/app/icons/phosphoricons/regular/cross.svg

<svg xmlns="http://www.w3.org/2000/svg" fill="currentColor" viewBox="0 0 256 256"><path d="M200 72h-40V32a16 16 0 0 0-16-16h-32a16 16 0 0 0-16 16v40H56a16 16 0 0 0-16 16v32a16 16 0 0 0 16 16h40v88a16 16 0 0 0 16 16h32a16 16 0 0 0 16-16v-88h40a16 16 0 0 0 16-16V88a16 16 0 0 0-16-16m0 48h-48a8 8 0 0 0-8 8v96h-32v-96a8 8 0 0 0-8-8H56V88h48a8 8 0 0 0 8-8V32h32v48a8 8 0 0 0 8 8h48Z"/></svg>

<svg xmlns="http://www.w3.org/2000/svg" viewBox="0 0 256 256" fill="currentColor"><path d="M200,72H160V32a16,16,0,0,0-16-16H112A16,16,0,0,0,96,32V72H56A16,16,0,0,0,40,88v32a16,16,0,0,0,16,16H96v88a16,16,0,0,0,16,16h32a16,16,0,0,0,16-16V136h40a16,16,0,0,0,16-16V88A16,16,0,0,0,200,72Zm0,48H152a8,8,0,0,0-8,8v96H112V128a8,8,0,0,0-8-8H56V88h48a8,8,0,0,0,8-8V32h32V80a8,8,0,0,0,8,8h48Z"/></svg>
